X:1
T:Title
%%score { ( 1 4 ) | ( 2 3 ) }
L:1/8
M:6/8
K:C
V:1 treble nm="Grand Piano"
V:4 treble 
V:2 bass 
V:3 bass 
V:1
 z3 z2[Q:1/4=105] E | E2 [EG] [EG]2 [Ec] | [Ge]3 [Ec]2 [EG] | A2 B dcA | [EG]3- [EG]2 [EG] | %5
 [B,DF]2 [B,DG] [G,CE]2 [CEG] | .[B,DF]3 [G,CE]2 [CEc] | [C^FB]2 [CFA] [CF^G]2 [CFA] | d3- d2 E | %9
 E2 [EG] [EG]2 [Ec] | [Ge]3 [Ec]2 [EG] | A2 B dcA | [EG]3- [EG]2 [EG] | F2 G E2 [EG] | %14
 F2 G E2 [Ec] | [Fd]2 [FA] [FB]2 [FG] |[M:5/8] [Ec]-[Ec]- [Ec]3 |[M:1/8] [EG] |[M:3/4] e3 c3 | %19
 z2 C A2- [EA] | G2 F F2 E | z2 D D2 B | d3 B3 | A3 B3 | [Ed]2 [Ec] [_EB]2 [EA] | G6 | G2 z c3 | %27
 z2 C A2- [EA] | G2 F F2 E | z2 D D2 B | d3 B3 | A3 B3 | c6- |[M:5/8] c-c- c3 |] %34
V:2
 z3 z2 [C,G,C] | [C,G,C]2 [C,C] [C,C]2 [C,G,] | [C,C]3 [C,G,]2 [C,C] | %3
 [F,CF]2 [F,B,F] [F,A,F]2 [F,CF] | [C,C]3- [C,C]2 [C,C] | G,2 G, C,2 C, | G,3 z3 | D,2 D, D,2 D, | %8
 [G,B,F]3- [G,B,F]2[K:bass] [C,G,C] | [C,G,C]2 [C,C] [C,C]2 [C,G,] | [C,C]3 [C,G,]2 [C,C] | %11
 [F,CF]2 [F,B,F] [F,A,F]2 [F,CF] | [C,C]3- [C,C]2 [C,C] | [G,B,D]2 [G,B,D] [C,G,C]2 [C,C] | %14
 [G,B,D]3 [C,G,C]2 [C,C] | [D,A,]2 [D,D] [G,D]2 [G,B,] |[M:5/8] [C,C]-[C,C]- [C,C]3 | %17
[M:1/8] [C,C] |[M:3/4] [C,C]2 [C,C] [C,G,]2 [C,G,] | [C,G,C]2 [C,G,] [C,C]2 [C,C] | %20
 [G,B,E]2 [G,B,D] [G,B,D]2 [G,_B,^C] | [G,B,D]2 [G,B,] [G,B,]2[K:treble] [G,DF] | %22
 [G,B,F]2 [G,B,] [G,DF]2 [G,D] | [G,CF]2 [G,C] [G,DF]2[K:bass] [G,D] | %24
 [C,C]2 [C,G,] [C,F,]2 [C,F,] | [C,G,]2 [C,C] [C,C]2 [C,C] | [C,C]2 [C,C] [C,G,]2 [C,G,] | %27
 [C,G,C]2 [C,G,] [C,C]2 [C,C] | [G,B,E]2 [G,B,D] [G,B,D]2 [G,_B,^C] | %29
 [G,B,D]2 [G,B,] [G,B,]2[K:treble] [G,DF] | [G,B,F]2 [G,B,] [G,DF]2 [G,D] | %31
 [G,CF]2 [G,C] [G,DF]2[K:bass] [G,D] | [C,C]2 [C,G,] [C,A,]2 [C,A,] | %33
[M:5/8] [C,G,]-[C,G,]- [C,G,]3 |] %34
V:3
 x6 | x6 | x6 | x6 | x6 | x6 | z2 G C,2 C, | x6 | x5[K:bass] x | x6 | x6 | x6 | x6 | x6 | x6 | x6 | %16
[M:5/8] x5 |[M:1/8] x |[M:3/4] x6 | x6 | x6 | x5[K:treble] x | x6 | x5[K:bass] x | x6 | x6 | x6 | %27
 x6 | x6 | x5[K:treble] x | x6 | x5[K:bass] x | x6 |[M:5/8] x5 |] %34
V:4
 x6 | x6 | x6 | x6 | x6 | x6 | x6 | x6 | x6 | x6 | x6 | x6 | x6 | x6 | x6 | x6 |[M:5/8] x5 | %17
[M:1/8] x |[M:3/4] G2 G E2 E | E3 .E3 | x6 | F6 | z2 .F2 z F | z2 .F2 z F | x6 | E2 E E2 [EG] | %26
 e2- [Ge] E2 E | E3 .E3 | x6 | F6 | z2 .F2 z F | z2 .F2 z F | E2 E F2 F |[M:5/8] E-E- E3 |] %34

